!!!OTL: 688. Zum Tode betruebt.
!!!ODT: 1890
!!!ARE: Europa, Mitteleuropa, Deutschland, Hessen, Nassau, Hennethal
!!!SCT: E0688
!!!TXL: @@DE
!!!YEM: Copyright 1995, estate of Helmut Schaffrath.
**kern	**text
*ICvox	*
*M4/4	*
*met(c)	*
*k[f#]	*
*G:	*
=1	=1
!LO:TX:a:t=Langsam.	!
!LO:TX:a:t=Aus Hennethal im Naſſauiſchen. 1890.	!
{4dd	O
4gg	ihr
4ee	Berg
8ddL	und
8ccJ	.
=2	=2
(4dd	Hü-
4b)	.
4a}	-gel,
{8g	fal-
8b	-let
=3	=3
4dd	ü-
4dd	.
4cc	-ber
4cc	.
=4	=4
2b	mich!
4r}	.
{8bL	Jch
8aJ	.
=5	=5
4g	bin
4g	des
4g	Le-
4a	-bens
=6	=6
2b	mü-
4a}	-de,
{8aL	ver-
8bJ	.
=7	=7
4cc	-ſcharrt
4ee	mich
4dd	in
8ddL	die
8ccJ	.
=8	=8
2b	Erd!
4r}	.
{8ddL	Wohl
8bJ	.
=9	=9
4a	in
4a	die
4a	Erd,
8aL	wohl
8bJ	.
=10	=10
4cc	in
8ccL	das
8eeJ	.
4dd}	Grab,
{8ddL	die-
8bJ	.
=11	=11
4a	-weil
4a	ich
4a	dirs
8aL	ver-
8bJ	.
=12	=12
4cc	-ſpro-
8ccL	-chen
8eeJ	.
4dd	hab;
4r}	.
=13	=13
{4dd	da-
4gg	-rum,
4ee	da-
8ddL	-rum
8ccJ	.
=14	=14
(4dd	ſter-
4b)	.
2a}	-ben,
=15	=15
{4dd	da-
4gg	-rum
4ee	ſter-
8ddL	-ben
8ccJ	.
=16	=16
2b	wir.
2r}	.
==	==
!!!AGN: Liebes - Lied, Leid, Klage
!!!ONB: ESAC (Essen Associative Code) Database: ERK2
!!!AMT: simple quadruple
!!!AIN: vox
!!!EED: Helmut Schaffrath
!!!EEV: 1.0
!!!GTL: Liebeslieder [Neuere (aus dem 18. bis 19. Jahrh.) - Liebesleid] 678-740
!!!URL-scan: https://rosdok.uni-rostock.de/mcrviewer/recordIdentifier/rosdok_ppn745177662/iview2/phys_0492.iview2?x=193.8995864193107&y=170.45444130012766&scale=0.7029437510502773&rotation=0&layout=singlePageLayout
!!!ENC: Anna Maria Matuszewska
!!!EEV: 2024/12/16
*-	*-
